X:187
T:Green Hills of Tyrol
S:My memory
Z:Nigel Gatherer
M:3/4
L:1/8
K:A
D|GA B2 BG|Bc d2 de|Be d>B AA|Ge d>c BD|
GA B2 BG|Bc d2 de|Be d>B AA|AG B>A G2|]
<end>
<start>
